packages/foundations/assets/icons/functional/images/devices/printer_20.svg

<svg width="20" height="20" viewBox="0 0 20 20" fill="none" xmlns="http://www.w3.org/2000/svg">
<g clip-path="url(#clip0_185_778)">
<path fill-rule="evenodd" clip-rule="evenodd" d="M13 2C13.5 2 14 2.44 14 3V4H16.4062C17.375 4 18 4.875 18 5.8125V12.1562C18 13.125 17.4062 14 16.4062 14H14V17C14 17.5625 13.5625 18 13 18H7C6.4688 18 6 17.625 6 17V14H3.5938C2.625 14 2 13.0938 2 12.1562V5.8125C2 4.875 2.5625 4 3.5938 4H6V3C6 2.4375 6.4688 2 7 2H13ZM12 12H8V16H12V12ZM16 6H4V12H6V11C6 10.5 6.5 10 7 10H13C13.5 10 14 10.5 14 11V12H16V6Z" fill="#1A1C1F"/>
</g>
<defs>
<clipPath id="clip0_185_778">
<rect width="20" height="20" fill="white"/>
</clipPath>
</defs>
</svg>

<svg xmlns="http://www.w3.org/2000/svg" width="20" height="20" fill="none"><g clip-path="url(#a)"><path fill="#1A1C1F" fill-rule="evenodd" d="M13 2c.5 0 1 .44 1 1v1h2.406C17.375 4 18 4.875 18 5.813v6.343c0 .969-.594 1.844-1.594 1.844H14v3c0 .563-.437 1-1 1H7c-.531 0-1-.375-1-1v-3H3.594C2.625 14 2 13.094 2 12.156V5.812C2 4.876 2.563 4 3.594 4H6V3c0-.562.469-1 1-1zm-1 10H8v4h4zm4-6H4v6h2v-1c0-.5.5-1 1-1h6c.5 0 1 .5 1 1v1h2z" clip-rule="evenodd"/></g><defs><clipPath id="a"><path fill="#fff" d="M0 0h20v20H0z"/></clipPath></defs></svg>
